icons/rhythm.svg

<svg width="24" height="24" viewBox="0 0 24 24" fill="none" xmlns="http://www.w3.org/2000/svg">
<path fill-rule="evenodd" clip-rule="evenodd" d="M9 3C9.55228 3 10 3.44772 10 4V20C10 20.5523 9.55228 21 9 21C8.44772 21 8 20.5523 8 20V4C8 3.44772 8.44772 3 9 3ZM21 6C21.5523 6 22 6.44772 22 7V20C22 20.5523 21.5523 21 21 21C20.4477 21 20 20.5523 20 20V7C20 6.44772 20.4477 6 21 6ZM3 9C3.55228 9 4 9.44772 4 10V20C4 20.5523 3.55228 21 3 21C2.44772 21 2 20.5523 2 20V10C2 9.44772 2.44772 9 3 9ZM15 12C15.5523 12 16 12.4477 16 13V20C16 20.5523 15.5523 21 15 21C14.4477 21 14 20.5523 14 20V13C14 12.4477 14.4477 12 15 12Z" fill="black"/>
</svg>

<svg
  width="24"
  height="24"
  viewBox="0 0 24 24"
  xmlns="http://www.w3.org/2000/svg"
>
  <path
    fill-rule="evenodd"
    clip-rule="evenodd"
    d="M9 3a1 1 0 0 1 1 1v16a1 1 0 1 1-2 0V4a1 1 0 0 1 1-1zm12 3a1 1 0 0 1 1 1v13a1 1 0 1 1-2 0V7a1 1 0 0 1 1-1zM3 9a1 1 0 0 1 1 1v10a1 1 0 1 1-2 0V10a1 1 0 0 1 1-1zm12 3a1 1 0 0 1 1 1v7a1 1 0 1 1-2 0v-7a1 1 0 0 1 1-1z"
  />
</svg>
